src/libvalent/ui/data/icons/hicolor/scalable/devices/phonelink-lock-symbolic.svg

<?xml version="1.0" encoding="UTF-8"?>
<svg xmlns="http://www.w3.org/2000/svg" height="16px" viewBox="0 0 16 16" width="16px"><path d="m 4.199219 0 c -1.203125 0 -2.199219 1 -2.199219 2.199219 v 1.808593 h 2 v -1.808593 c 0 -0.128907 0.074219 -0.199219 0.199219 -0.199219 h 7.605469 c 0.125 0 0.195312 0.070312 0.195312 0.199219 v 9.613281 c 0 0.128906 -0.070312 0.199219 -0.195312 0.199219 l -9.804688 -0.011719 v 1.800781 c 0 1.199219 0.996094 2.199219 2.199219 2.199219 h 7.605469 c 1.203124 0 2.195312 -1 2.195312 -2.199219 v -11.601562 c 0 -1.199219 -0.992188 -2.199219 -2.195312 -2.199219 z m 3.800781 12.902344 c 0.550781 0 1 0.382812 1 0.933594 c 0 0.550781 -0.449219 1 -1 1 s -1 -0.449219 -1 -1 c 0 -0.550782 0.449219 -0.933594 1 -0.933594 z m 0 0"/><path d="m 4 5 c -1.097656 0 -2 0.902344 -2 2 v 1 h -0.453125 c -0.3125 0 -0.546875 0.171875 -0.546875 0.5 v 2.5 h 6 v -2.5 c 0 -0.257812 -0.210938 -0.5 -0.5 -0.5 h -0.5 v -1 c 0 -1.097656 -0.902344 -2 -2 -2 z m 0 1 c 0.558594 0 1 0.441406 1 1 v 1 h -2 v -1 c 0 -0.558594 0.441406 -1 1 -1 z m 0 0"/></svg>

<svg xmlns="http://www.w3.org/2000/svg" width="16" height="16">
    <g fill="#2e3436">
        <path d="M4.197 0A2.217 2.217 0 0 0 2 2.201v1.807h2V2.2c0-.13.073-.201.197-.201H5v.25c0 .415.334.75.75.75h4.5c.415 0 .75-.335.75-.75V2h.804c.124 0 .196.07.196.201v9.61c0 .13-.072.2-.196.2L2 12v1.799C2 14.999 2.995 16 4.197 16h7.607A2.215 2.215 0 0 0 14 13.799V2.2C14 1.001 13.006 0 11.804 0zM8 12.902c.552 0 1 .382 1 .934a1 1 0 0 1-2 0c0-.552.448-.934 1-.934z" style="line-height:normal;font-variant-ligatures:normal;font-variant-position:normal;font-variant-caps:normal;font-variant-numeric:normal;font-variant-alternates:normal;font-feature-settings:normal;text-indent:0;text-align:start;text-decoration-line:none;text-decoration-style:solid;text-decoration-color:#000;text-transform:none;text-orientation:mixed;white-space:normal;shape-padding:0;isolation:auto;mix-blend-mode:normal;solid-color:#000;solid-opacity:1;marker:none" color="#bebebe" font-weight="400" font-family="sans-serif" overflow="visible"/>
        <path d="M4 5C2.9 5 2 5.901 2 7v1h-.453C1.234 8 1 8.172 1 8.5V11h6V8.5c0-.258-.21-.5-.5-.5H6V7c0-1.099-.902-2-2-2zm0 1c.558 0 1 .442 1 1v1H3V7c0-.558.442-1 1-1z" style="marker:none"/>
    </g>
</svg>
